public/svgs/regular/film.svg

<svg xmlns="http://www.w3.org/2000/svg" viewBox="0 0 512 512"><!-- Font Awesome Pro 6.0.0-alpha2 by @fontawesome - https://fontawesome.com License - https://fontawesome.com/license (Commercial License) --><path d="M448 32H64C28.654 32 0 60.654 0 96V416C0 451.346 28.654 480 64 480H448C483.346 480 512 451.346 512 416V96C512 60.654 483.346 32 448 32ZM112 432H64C55.178 432 48 424.822 48 416V344H112V432ZM112 296H48V216H112V296ZM112 168H48V96C48 87.178 55.178 80 64 80H112V168ZM352 432H160V280H352V432ZM352 232H160V80H352V232ZM464 416C464 424.822 456.822 432 448 432H400V344H464V416ZM464 296H400V216H464V296ZM464 168H400V80H448C456.822 80 464 87.178 464 96V168Z"/></svg>

<svg xmlns="http://www.w3.org/2000/svg" viewBox="0 0 512 512"><!--! Font Awesome Pro 6.5.1 by @fontawesome - https://fontawesome.com License - https://fontawesome.com/license (Commercial License) Copyright 2023 Fonticons, Inc. --><path d="M352 432H160V320 280H352v40V432zm0-200H160V192 80H352V192v40zM64 80h48v88H48V96c0-8.8 7.2-16 16-16zM48 216h64v80H48V216zm64 216H64c-8.8 0-16-7.2-16-16V344h64v88zM400 168V80h48c8.8 0 16 7.2 16 16v72H400zm0 48h64v80H400V216zm0 128h64v72c0 8.8-7.2 16-16 16H400V344zM448 32H64C28.7 32 0 60.7 0 96V416c0 35.3 28.7 64 64 64H448c35.3 0 64-28.7 64-64V96c0-35.3-28.7-64-64-64z"/></svg>
